svg/OSM-icons/shop #ac39ac °ffffff !label=enshops,deLäden/29166;shop=cheese;!name=;[shop];!label=encheese,deKäse- geschäft.svg

<svg xmlns="http://www.w3.org/2000/svg" viewBox="0 0 580 580" enable-background="new 0 0 580 580"><path fill="#111" stroke="#eee" stroke-width="3.408" d="m66.28 1.768c-41.34 0-64.57 21.371-64.57 65.04v450.12c0 40.844 20.895 62.23 62.19 62.23h452.02c41.31 0 62.23-20.315 62.23-62.23v-450.12c0-42.602-20.923-65.04-63.52-65.04-.003 0-448.5-.143-448.35 0z"/><g fill="#fff"><path d="m517.74 227.78l-360.18-149.79c0 0-102.18 35.494-94.93 149.79h455.11"/><path d="m62.63 502.01l455.11-22.844v-61.35c-3.628 1.412-7.571 2.196-11.699 2.196-17.82 0-32.27-14.447-32.27-32.27s14.446-32.27 32.27-32.27c4.128 0 8.07.783 11.699 2.196v-119.14h-455.11v263.48m335.85-216.44c9.505 0 17.21 7.705 17.21 17.208 0 9.505-7.705 17.209-17.21 17.209-9.504 0-17.209-7.704-17.209-17.209 0-9.504 7.705-17.208 17.209-17.208m-58.08 93.57c22.572 0 40.871 18.3 40.871 40.872 0 22.571-18.299 40.871-40.871 40.871s-40.871-18.3-40.871-40.871c0-22.572 18.299-40.872 40.871-40.872m-82.01-12.1c10.989 0 19.898 8.909 19.898 19.897 0 10.989-8.909 19.898-19.898 19.898-10.99 0-19.898-8.909-19.898-19.898 0-10.988 8.909-19.897 19.898-19.897m-121.27-86.85c20.791 0 37.645 16.854 37.645 37.645 0 20.79-16.854 37.645-37.645 37.645s-37.645-16.854-37.645-37.645c.0001-20.791 16.855-37.645 37.645-37.645m-27.695 145.74c13.217 0 23.931 10.715 23.931 23.932s-10.714 23.932-23.931 23.932-23.931-10.715-23.931-23.932 10.714-23.932 23.931-23.932"/></g></svg>

<?xml version="1.0" encoding="utf-8"?>
<!-- Generator: Adobe Illustrator 15.0.0, SVG Export Plug-In . SVG Version: 6.00 Build 0)  -->
<!DOCTYPE svg PUBLIC "-//W3C//DTD SVG 1.1//EN" "http://www.w3.org/Graphics/SVG/1.1/DTD/svg11.dtd">
<svg version="1.1" xmlns="http://www.w3.org/2000/svg" xmlns:xlink="http://www.w3.org/1999/xlink" x="0px" y="0px" width="580px"
	 height="580px" viewBox="0 0 580 580" enable-background="new 0 0 580 580" xml:space="preserve">
<g id="Layer_1">
	<g id="Layer_2">
		<g id="g1327">
			<path id="path1329" fill="#111111" stroke="#EEEEEE" stroke-width="3.408" d="M66.275,1.768
				c-41.335,0-64.571,21.371-64.571,65.036v450.123c0,40.844,20.895,62.229,62.192,62.229h452.024
				c41.307,0,62.229-20.315,62.229-62.229V66.804c0-42.602-20.923-65.036-63.521-65.036C514.625,1.768,66.133,1.625,66.275,1.768z"
				/>
		</g>
	</g>
</g>
<g id="Layer_2_1_">
	<g>
		<path fill="#FFFFFF" d="M517.738,227.775L157.556,77.985c0,0-102.178,35.494-94.926,149.79H517.738z"/>
		<path fill="#FFFFFF" d="M62.63,502.014l455.108-22.844v-61.352c-3.628,1.412-7.571,2.196-11.699,2.196
			c-17.82,0-32.267-14.447-32.267-32.268s14.446-32.267,32.267-32.267c4.128,0,8.071,0.783,11.699,2.196V238.531H62.63V502.014z
			 M398.482,285.57c9.505,0,17.21,7.705,17.21,17.208c0,9.505-7.705,17.209-17.21,17.209c-9.504,0-17.209-7.704-17.209-17.209
			C381.273,293.274,388.978,285.57,398.482,285.57z M340.402,379.143c22.572,0,40.871,18.3,40.871,40.872
			c0,22.571-18.299,40.871-40.871,40.871s-40.871-18.3-40.871-40.871C299.531,397.443,317.83,379.143,340.402,379.143z
			 M258.39,367.044c10.989,0,19.898,8.909,19.898,19.897c0,10.989-8.909,19.898-19.898,19.898c-10.99,0-19.898-8.909-19.898-19.898
			C238.492,375.953,247.401,367.044,258.39,367.044z M137.12,280.192c20.791,0,37.645,16.854,37.645,37.645
			c0,20.79-16.854,37.645-37.645,37.645s-37.645-16.854-37.645-37.645C99.476,297.046,116.33,280.192,137.12,280.192z
			 M109.425,425.93c13.217,0,23.931,10.715,23.931,23.932s-10.714,23.932-23.931,23.932s-23.931-10.715-23.931-23.932
			S96.208,425.93,109.425,425.93z"/>
	</g>
</g>
</svg>
